svgs/1F385-1F3FD.svg

<svg xmlns="http://www.w3.org/2000/svg" xmlns:xlink="http://www.w3.org/1999/xlink" preserveAspectRatio="none" viewBox="0 0 72 72"><defs><path id="a" fill="#BE2006" d="M81.25 18.75Q91.3 26.55 96.5 34.5q2.4 3.65 4.05 7.1 1.3 2.85 2.65 6.75 2.25 6.55 3.35 13.85.5 3.65.6 5.95h8.35q.35-5.55-.85-13.65-2.45-16.15-10.35-28.65Q95.9 12.5 77.35 7.9q-5.8-1.45-11.9-1.85l-4.95-.1q11.35 5.5 20.75 12.8z"/><path id="b" fill="#CFD8DC" d="M111.35 65.95q-4.45 0-7.65 3.15-3.15 3.2-3.15 7.65t3.15 7.65q3.2 3.15 7.65 3.15T119 84.4q3.15-3.2 3.15-7.65T119 69.1q-3.2-3.15-7.65-3.15z"/><path id="c" fill="#99674F" d="M98.95 62.8H95.5v19.55q4.6 0 7.6-2.3 3.45-2.7 3.45-7.75 0-5.1-3.8-7.8l-3.8-1.7z"/><path id="d" fill="#99674F" d="M19.65 62.8h-3.5l-3.8 1.7q-3.8 2.7-3.8 7.8 0 5.05 3.45 7.75 3 2.3 7.65 2.3V62.8z"/><path id="e" fill="#6D4C41" d="M48.4 28.65l7.2 12.2.8-6.3q1.1-7.6-1.25-15.2Q50.35 4.15 33 4.15q-17.35 0-22.95 14.6-2.8 7.25-2.1 14.5l1.2 7.6L16.9 28.4q11.1.8 22.4.65 5.65-.15 9.1-.4z"/><path id="f" fill="#CC9970" d="M55.6 39.5q0-16.5-4.7-24.65Q45.35 5.2 32.35 5.2q-12.9 0-18.5 9.65Q9.15 23 9.15 39.5q0 14.1 7.9 20.9 6.15 5.25 15.3 5.25t15.3-5.2q7.95-6.8 7.95-20.95z"/><path id="g" fill="#E0E0E0" d="M30.6 88.75q-8.05-7.85-7.2-29.85H13l1.25 4.4q1.3 5.2 1.4 9.25.15 5.05-.65 9.95-.9 5.75-1 10.2-.25 7.05 2.7 12.15 4.25 7.3 15.35 11.9 5.2 2.15 14.2 3.95 8.95 1.8 11.3 2.8V91.2q-18.7 5.65-26.95-2.45z"/><path id="h" fill="#E0E0E0" d="M91.7 58.9q.9 21.95-7.15 29.85-8.25 8.05-27 2.45v32.3q2.4-1 11.3-2.8 9-1.8 14.25-3.95 11.1-4.55 15.35-11.9 2.9-5.05 2.7-12.15-.15-4.4-1.05-10.2-.8-4.9-.65-9.95.1-4.05 1.4-9.25l1.3-4.4H91.7z"/><path id="i" fill="#E0E0E0" d="M26.45 95.1q-2.35.6-1.45 2.2.85 1.6 4.15 3.15 8.45 3.95 18.7 2.1 6.85-1.2 9.15-6.45.7-1.6.85-3.45l.05-1.5q-11.6-3.65-20.7-.7-2.55.8-6.2 2.65-3.3 1.7-4.55 2z"/><path id="j" fill="#E0E0E0" d="M90.15 97.3q.9-1.6-1.45-2.2-1.25-.3-4.6-2-3.6-1.85-6.2-2.65-9.1-2.95-20.7.7l.05 1.5q.15 1.85.9 3.45 2.3 5.25 9.15 6.45 10.25 1.85 18.7-2.1 3.25-1.55 4.15-3.15z"/><path id="k" fill="#DD2C00" d="M101.9 44.4Q99.8 28.6 91.5 19 80.2 5.95 58.65 5.95q-22.25 0-34.25 13.2-8.75 9.65-11.4 25.2 22-4.75 44.45-4.7 22.45 0 44.45 4.75z"/><path id="l" fill="#F5F5F5" d="M59.7 35.5q.1-.95.1-1l-.05-7.4q-.05-.65-.5-1.25-.5-.6-1.15-.75-12.75-2.8-25.8-2.8T6.55 25.1q-.7.15-1.2.75-.45.6-.5 1.25l-.05 7.4.1 1.05q.3 1.15 1.05 1.65.75-1.05 2.3-1.6 11.85-2.45 24.05-2.45 12.2 0 24.05 2.45 1.55.55 2.35 1.45.75-.45 1-1.55z"/><path id="m" fill="#CFD8DC" d="M91.15 7.7q.05 1.7.15 3.8.05 1.4-.1 2.3-.25 1.75-2.15 2.7-1.75.85-3.95.55-14.9-2.4-22.1-3.4-12.45-1.7-22.15-.95-5.4.45-17.4 2.8-11.35 2.25-17.4 2.6-2.25.15-4-1.1Q.975 16.271.6 15.5l-.05 6.25.2 1.85q.5 2.05 1.85 2.9 1.35-1.8 4.05-2.85 21.1-4.35 42.8-4.35 21.7 0 42.75 4.35 2.75 1.05 4.15 2.65 1.3-.8 1.75-2.75.2-1.75.2-1.8L98.2 8.6q-.05-1.2-.9-2.25t-2.05-1.3q-3.792-.845-7.6-1.55.966.333 1.9 1.15Q91.1 6 91.15 7.7z"/><path id="n" fill="#513F35" d="M70.75 95.5q-.3-.65-1.35-.65H45.75q-1.05 0-1.4.65-.3.6.35 1.65 1.25 1.9 4.3 3.5 3.9 2.05 8.55 2.05t8.55-2.05q3.05-1.6 4.3-3.5.65-1 .35-1.65z"/><path id="o" fill="#99674F" d="M57.55 85.65q-2.6 0-5.7-.85-.6-.2-.9.25-.25.4 0 .85.65 1.1 2.25 2.15 2.05 1.25 4.35 1.25t4.35-1.25q1.6-1.05 2.25-2.15.25-.45 0-.85-.25-.4-.9-.25-3.1.85-5.7.85z"/><path id="p" fill="#444" d="M38.65 66q-2.3 0-3.9 1.95-1.6 1.9-1.6 4.65 0 2.7 1.6 4.65 1.6 1.9 3.9 1.9 2.25 0 3.85-1.9 1.6-1.95 1.6-4.65 0-2.75-1.6-4.7-1.6-1.95-3.85-1.9z"/><path id="q" fill="#444" d="M72.6 67.9Q71 69.85 71 72.6q0 2.7 1.6 4.65 1.6 1.9 3.9 1.9 2.25 0 3.85-1.9 1.6-1.95 1.6-4.65 0-2.75-1.6-4.65Q78.75 66 76.5 66q-2.3-.05-3.9 1.9z"/><path id="r" fill="#513F35" d="M70.75 95.5q-.3-.65-1.35-.65H45.75q-1.05 0-1.4.65-.3.6.35 1.65 1.25 1.9 4.3 3.5 3.9 2.05 8.55 2.05t8.55-2.05q3.05-1.6 4.3-3.5.65-1 .35-1.65z"/></defs><use transform="scale(.5625)" xlink:href="#a"/><use transform="scale(.5625)" xlink:href="#b"/><use transform="matrix(.56248 0 0 .56248 0 -.15)" xlink:href="#c"/><use transform="matrix(.56248 0 0 .56248 0 -.15)" xlink:href="#d"/><use xlink:href="#e"/><use xlink:href="#f"/><use transform="scale(.56248)" xlink:href="#g"/><use transform="scale(.56248)" xlink:href="#h"/><use transform="scale(.56248)" xlink:href="#i"/><use transform="scale(.56248)" xlink:href="#j"/><use transform="scale(.5625)" xlink:href="#k"/><use xlink:href="#l"/><use transform="translate(4.5 22.3) scale(.5625)" xlink:href="#m"/><use transform="scale(.5625)" xlink:href="#n"/><use transform="scale(.5625)" xlink:href="#o"/><g transform="scale(.5625)"><use xlink:href="#p"/></g><g transform="scale(.5625)"><use xlink:href="#q"/></g><g transform="scale(.5625)"><use xlink:href="#r"/></g></svg>

<svg xmlns="http://www.w3.org/2000/svg" version="1.1" xmlns:xlink="http://www.w3.org/1999/xlink" preserveAspectRatio="none" x="0px" y="0px" width="72px" height="72px" viewBox="0 0 72 72">
<defs>
<g id="Layer1_0_MEMBER_0_MEMBER_0_FILL">
<path fill="#BE2006" stroke="none" d="
M 81.25 18.75
Q 91.3 26.55 96.5 34.5 98.9 38.15 100.55 41.6 101.85 44.45 103.2 48.35 105.45 54.9 106.55 62.2 107.05 65.85 107.15 68.15
L 115.5 68.15
Q 115.85 62.6 114.65 54.5 112.2 38.35 104.3 25.85 95.9 12.5 77.35 7.9 71.55 6.45 65.45 6.05
L 60.5 5.95
Q 71.85 11.45 81.25 18.75 Z"/>
</g>

<g id="Layer1_0_MEMBER_0_MEMBER_1_FILL">
<path fill="#CFD8DC" stroke="none" d="
M 111.35 65.95
Q 106.9 65.95 103.7 69.1 100.55 72.3 100.55 76.75 100.55 81.2 103.7 84.4 106.9 87.55 111.35 87.55 115.8 87.55 119 84.4 122.15 81.2 122.15 76.75 122.15 72.3 119 69.1 115.8 65.95 111.35 65.95 Z"/>
</g>

<g id="Layer1_0_MEMBER_0_MEMBER_2_MEMBER_0_FILL">
<path fill="#99674F" stroke="none" d="
M 98.95 62.8
L 95.5 62.8 95.5 82.35
Q 100.1 82.35 103.1 80.05 106.55 77.35 106.55 72.3 106.55 67.2 102.75 64.5
L 98.95 62.8 Z"/>
</g>

<g id="Layer1_0_MEMBER_0_MEMBER_2_MEMBER_1_FILL">
<path fill="#99674F" stroke="none" d="
M 19.65 62.8
L 16.15 62.8 12.35 64.5
Q 8.55 67.2 8.55 72.3 8.55 77.35 12 80.05 15 82.35 19.65 82.35
L 19.65 62.8 Z"/>
</g>

<g id="Layer1_0_MEMBER_0_MEMBER_3_FILL">
<path fill="#6D4C41" stroke="none" d="
M 48.4 28.65
L 55.6 40.85 56.4 34.55
Q 57.5 26.95 55.15 19.35 50.35 4.15 33 4.15 15.65 4.15 10.05 18.75 7.25 26 7.95 33.25
L 9.15 40.85 16.9 28.4
Q 28 29.2 39.3 29.05 44.95 28.9 48.4 28.65 Z"/>
</g>

<g id="Layer1_0_MEMBER_0_MEMBER_4_FILL">
<path fill="#CC9970" stroke="none" d="
M 55.6 39.5
Q 55.6 23 50.9 14.85 45.35 5.2 32.35 5.2 19.45 5.2 13.85 14.85 9.15 23 9.15 39.5 9.15 53.6 17.05 60.4 23.2 65.65 32.35 65.65 41.5 65.65 47.65 60.45 55.6 53.65 55.6 39.5 Z"/>
</g>

<g id="Layer1_0_MEMBER_0_MEMBER_5_MEMBER_0_FILL">
<path fill="#E0E0E0" stroke="none" d="
M 30.6 88.75
Q 22.55 80.9 23.4 58.9
L 13 58.9 14.25 63.3
Q 15.55 68.5 15.65 72.55 15.8 77.6 15 82.5 14.1 88.25 14 92.7 13.75 99.75 16.7 104.85 20.95 112.15 32.05 116.75 37.25 118.9 46.25 120.7 55.2 122.5 57.55 123.5
L 57.55 91.2
Q 38.85 96.85 30.6 88.75 Z"/>
</g>

<g id="Layer1_0_MEMBER_0_MEMBER_5_MEMBER_1_FILL">
<path fill="#E0E0E0" stroke="none" d="
M 91.7 58.9
Q 92.6 80.85 84.55 88.75 76.3 96.8 57.55 91.2
L 57.55 123.5
Q 59.95 122.5 68.85 120.7 77.85 118.9 83.1 116.75 94.2 112.2 98.45 104.85 101.35 99.8 101.15 92.7 101 88.3 100.1 82.5 99.3 77.6 99.45 72.55 99.55 68.5 100.85 63.3
L 102.15 58.9 91.7 58.9 Z"/>
</g>

<g id="Layer1_0_MEMBER_0_MEMBER_6_MEMBER_0_FILL">
<path fill="#E0E0E0" stroke="none" d="
M 26.45 95.1
Q 24.1 95.7 25 97.3 25.85 98.9 29.15 100.45 37.6 104.4 47.85 102.55 54.7 101.35 57 96.1 57.7 94.5 57.85 92.65
L 57.9 91.15
Q 46.3 87.5 37.2 90.45 34.65 91.25 31 93.1 27.7 94.8 26.45 95.1 Z"/>
</g>

<g id="Layer1_0_MEMBER_0_MEMBER_6_MEMBER_1_FILL">
<path fill="#E0E0E0" stroke="none" d="
M 90.15 97.3
Q 91.05 95.7 88.7 95.1 87.45 94.8 84.1 93.1 80.5 91.25 77.9 90.45 68.8 87.5 57.2 91.15
L 57.25 92.65
Q 57.4 94.5 58.15 96.1 60.45 101.35 67.3 102.55 77.55 104.4 86 100.45 89.25 98.9 90.15 97.3 Z"/>
</g>

<g id="Layer1_0_MEMBER_0_MEMBER_7_FILL">
<path fill="#DD2C00" stroke="none" d="
M 101.9 44.4
Q 99.8 28.6 91.5 19 80.2 5.95 58.65 5.95 36.4 5.95 24.4 19.15 15.65 28.8 13 44.35 35 39.6 57.45 39.65 79.9 39.65 101.9 44.4 Z"/>
</g>

<g id="Layer1_0_MEMBER_0_MEMBER_8_MEMBER_0_MEMBER_0_FILL">
<path fill="#F5F5F5" stroke="none" d="
M 59.7 35.5
Q 59.8 34.55 59.8 34.5
L 59.75 27.1
Q 59.7 26.45 59.25 25.85 58.75 25.25 58.1 25.1 45.35 22.3 32.3 22.3 19.25 22.3 6.55 25.1 5.85 25.25 5.35 25.85 4.9 26.45 4.85 27.1
L 4.8 34.5 4.9 35.55
Q 5.2 36.7 5.95 37.2 6.7 36.15 8.25 35.6 20.1 33.15 32.3 33.15 44.5 33.15 56.35 35.6 57.9 36.15 58.7 37.05 59.45 36.6 59.7 35.5 Z"/>
</g>

<g id="An_1F385_SVG_Layer_1__Clip_Group__0_Layer2_0_FILL">
<path fill="#CFD8DC" stroke="none" d="
M 91.15 7.7
Q 91.2 9.4 91.3 11.5 91.35 12.9 91.2 13.8 90.95 15.55 89.05 16.5 87.3 17.35 85.1 17.05 70.2 14.65 63 13.65 50.55 11.95 40.85 12.7 35.45 13.15 23.45 15.5 12.1 17.75 6.05 18.1 3.8 18.25 2.05 17 0.974609375 16.271484375 0.6 15.5
L 0.55 21.75 0.75 23.6
Q 1.25 25.65 2.6 26.5 3.95 24.7 6.65 23.65 27.75 19.3 49.45 19.3 71.15 19.3 92.2 23.65 94.95 24.7 96.35 26.3 97.65 25.5 98.1 23.55 98.3 21.8 98.3 21.75
L 98.2 8.6
Q 98.15 7.4 97.3 6.35 96.45 5.3 95.25 5.05 91.458203125 4.2046875 87.65 3.5 88.61640625 3.8330078125 89.55 4.65 91.1 6 91.15 7.7 Z"/>
</g>

<g id="Layer1_0_MEMBER_0_MEMBER_9_FILL">
<path fill="#513F35" stroke="none" d="
M 70.75 95.5
Q 70.45 94.85 69.4 94.85
L 45.75 94.85
Q 44.7 94.85 44.35 95.5 44.05 96.1 44.7 97.15 45.95 99.05 49 100.65 52.9 102.7 57.55 102.7 62.2 102.7 66.1 100.65 69.15 99.05 70.4 97.15 71.05 96.15 70.75 95.5 Z"/>
</g>

<g id="Layer1_0_MEMBER_0_MEMBER_10_FILL">
<path fill="#99674F" stroke="none" d="
M 57.55 85.65
Q 54.95 85.65 51.85 84.8 51.25 84.6 50.95 85.05 50.7 85.45 50.95 85.9 51.6 87 53.2 88.05 55.25 89.3 57.55 89.3 59.85 89.3 61.9 88.05 63.5 87 64.15 85.9 64.4 85.45 64.15 85.05 63.9 84.65 63.25 84.8 60.15 85.65 57.55 85.65 Z"/>
</g>

<g id="Layer1_0_MEMBER_0_MEMBER_11_FILL">
<path fill="#444444" stroke="none" d="
M 38.65 66
Q 36.35 66 34.75 67.95 33.15 69.85 33.15 72.6 33.15 75.3 34.75 77.25 36.35 79.15 38.65 79.15 40.9 79.15 42.5 77.25 44.1 75.3 44.1 72.6 44.1 69.85 42.5 67.9 40.9 65.95 38.65 66 Z"/>
</g>

<g id="Layer1_0_MEMBER_0_MEMBER_12_FILL">
<path fill="#444444" stroke="none" d="
M 72.6 67.9
Q 71 69.85 71 72.6 71 75.3 72.6 77.25 74.2 79.15 76.5 79.15 78.75 79.15 80.35 77.25 81.95 75.3 81.95 72.6 81.95 69.85 80.35 67.95 78.75 66 76.5 66 74.2 65.95 72.6 67.9 Z"/>
</g>

<g id="Layer1_0_MEMBER_0_MEMBER_13_FILL">
<path fill="#513F35" stroke="none" d="
M 70.75 95.5
Q 70.45 94.85 69.4 94.85
L 45.75 94.85
Q 44.7 94.85 44.35 95.5 44.05 96.1 44.7 97.15 45.95 99.05 49 100.65 52.9 102.7 57.55 102.7 62.2 102.7 66.1 100.65 69.15 99.05 70.4 97.15 71.05 96.15 70.75 95.5 Z"/>
</g>
</defs>

<g id="Layer_1">
<g transform="matrix( 0.5625, 0, 0, 0.5625, 0,0) ">
<use xlink:href="#Layer1_0_MEMBER_0_MEMBER_0_FILL"/>
</g>

<g transform="matrix( 0.5625, 0, 0, 0.5625, 0,0) ">
<use xlink:href="#Layer1_0_MEMBER_0_MEMBER_1_FILL"/>
</g>

<g transform="matrix( 0.5624847412109375, 0, 0, 0.5624847412109375, 0,-0.15) ">
<use xlink:href="#Layer1_0_MEMBER_0_MEMBER_2_MEMBER_0_FILL"/>
</g>

<g transform="matrix( 0.5624847412109375, 0, 0, 0.5624847412109375, 0,-0.15) ">
<use xlink:href="#Layer1_0_MEMBER_0_MEMBER_2_MEMBER_1_FILL"/>
</g>

<g transform="matrix( 1, 0, 0, 1, 0,0) ">
<use xlink:href="#Layer1_0_MEMBER_0_MEMBER_3_FILL"/>
</g>

<g transform="matrix( 1, 0, 0, 1, 0,0) ">
<use xlink:href="#Layer1_0_MEMBER_0_MEMBER_4_FILL"/>
</g>

<g transform="matrix( 0.5624847412109375, 0, 0, 0.5624847412109375, 0,0) ">
<use xlink:href="#Layer1_0_MEMBER_0_MEMBER_5_MEMBER_0_FILL"/>
</g>

<g transform="matrix( 0.5624847412109375, 0, 0, 0.5624847412109375, 0,0) ">
<use xlink:href="#Layer1_0_MEMBER_0_MEMBER_5_MEMBER_1_FILL"/>
</g>

<g transform="matrix( 0.5624847412109375, 0, 0, 0.5624847412109375, 0,0) ">
<use xlink:href="#Layer1_0_MEMBER_0_MEMBER_6_MEMBER_0_FILL"/>
</g>

<g transform="matrix( 0.5624847412109375, 0, 0, 0.5624847412109375, 0,0) ">
<use xlink:href="#Layer1_0_MEMBER_0_MEMBER_6_MEMBER_1_FILL"/>
</g>

<g transform="matrix( 0.5625, 0, 0, 0.5625, 0,0) ">
<use xlink:href="#Layer1_0_MEMBER_0_MEMBER_7_FILL"/>
</g>

<g transform="matrix( 1, 0, 0, 1, 0,0) ">
<use xlink:href="#Layer1_0_MEMBER_0_MEMBER_8_MEMBER_0_MEMBER_0_FILL"/>
</g>

<g transform="matrix( 0.5625, 0, 0, 0.5625, 4.5,22.3) ">
<g id="Camada_1"/>

<g id="Camada_3">
<g transform="matrix( 1, 0, 0, 1, 0,0) ">
<use xlink:href="#An_1F385_SVG_Layer_1__Clip_Group__0_Layer2_0_FILL"/>
</g>
</g>

<g id="Camada_2"/>

<g id="Camada_4"/>
</g>

<g transform="matrix( 0.5625, 0, 0, 0.5625, 0,0) ">
<use xlink:href="#Layer1_0_MEMBER_0_MEMBER_9_FILL"/>
</g>

<g transform="matrix( 0.5625, 0, 0, 0.5625, 0,0) ">
<use xlink:href="#Layer1_0_MEMBER_0_MEMBER_10_FILL"/>
</g>

<g transform="matrix( 0.5625, 0, 0, 0.5625, 0,0) ">
<use xlink:href="#Layer1_0_MEMBER_0_MEMBER_11_FILL"/>
</g>

<g transform="matrix( 0.5625, 0, 0, 0.5625, 0,0) ">
<use xlink:href="#Layer1_0_MEMBER_0_MEMBER_12_FILL"/>
</g>

<g transform="matrix( 0.5625, 0, 0, 0.5625, 0,0) ">
<use xlink:href="#Layer1_0_MEMBER_0_MEMBER_13_FILL"/>
</g>
</g>
</svg>
